build/system/SmallArrowDownSolid.svg

<svg xmlns="http://www.w3.org/2000/svg" fill="none" viewBox="0 0 24 24" focusable="false"><path d="M0 0H24V24H0z" transform="matrix(1 0 0 -1 0 24)"/><path fill="#74767B" fill-rule="evenodd" d="M12 21C16.9706 21 21 16.9706 21 12C21 7.02944 16.9706 3 12 3C7.02944 3 3 7.02944 3 12C3 16.9706 7.02944 21 12 21ZM8.82219 10.3567C8.68219 10.4867 8.61219 10.6567 8.61219 10.8367C8.61219 10.9967 8.66219 11.1467 8.78219 11.2767L11.47 14.2665C11.75 14.5765 12.23 14.5765 12.51 14.2665L15.1063 11.2809C15.3463 11.0109 15.3263 10.6009 15.0663 10.3609C14.7963 10.1209 14.3863 10.1309 14.1463 10.4009L11.99 12.8965L9.74219 10.3967C9.50219 10.1367 9.09219 10.1167 8.82219 10.3567Z"/></svg>

<svg xmlns="http://www.w3.org/2000/svg" fill="none" viewBox="0 0 24 24" focusable="false"><path fill="#74767B" fill-rule="evenodd" d="M12 21a9 9 0 0 0 9-9c0-4.98-4.03-9-9-9-4.98 0-9 4.02-9 9 0 4.97 4.02 9 9 9M8.82 10.35c-.14.13-.21.3-.21.48 0 .16.05.31.17.44l2.69 2.99c.28.31.76.31 1.04 0l2.59-2.98c.24-.27.22-.68-.04-.92a.65.65 0 0 0-.92.04l-2.15 2.49-2.25-2.5a.66.66 0 0 0-.92-.04"/></svg>
